public/floorboard.svg

<svg width="377" height="123" viewBox="0 0 377 123" fill="none" xmlns="http://www.w3.org/2000/svg">
<g clip-path="url(#clip0_1277_7130)">
<path d="M-0.408112 1.4624C-0.166858 0.597907 0.620755 0 1.51828 0H391.78C392.769 0 393.609 0.722679 393.758 1.70039L395.958 16.2253C395.986 16.4076 395.988 16.5927 395.965 16.7756L384 111.5L380.817 127.869C380.633 128.814 379.802 129.495 378.839 129.487L-6.19625 126.522C-7.56961 126.511 -8.52393 125.151 -8.06683 123.856L-0.140006 101.397C-0.0476788 101.135 -0.0107812 100.857 -0.0316583 100.581L-5.97358 21.85C-5.99106 21.6184 -5.96807 21.3856 -5.90565 21.1619L-0.408112 1.4624Z" fill="#A47B52"/>
<path d="M66 42.5L86.5 -2H99L71 42.5V55.5L57 89.5L66 58V42.5Z" fill="#BE945E" stroke="#BE945E"/>
<path d="M206.5 93.8525L231.5 -5H244L211.5 93.8525V113.033L202 130L206.5 116.721V93.8525Z" fill="#BE945E" stroke="#BE945E"/>
<path d="M227.415 83.6198L302.842 -24.3274L314.261 -19.2432L231.983 85.6535L221.779 108.572L204.074 124.981L215.249 110.945L227.415 83.6198Z" fill="#BE945E" stroke="#BE945E"/>
<path d="M119.5 31.9508L94.5 133H82L114.5 31.9508V12.3443L124 -5L119.5 8.57377V31.9508Z" fill="#BE945E" stroke="#BE945E"/>
<path d="M328.788 58.6474L312.14 128.195L299.733 129.718L323.825 59.2568L322.241 46.3537L330.269 33.7816L326.899 43.263L328.788 58.6474Z" fill="#BE945E" stroke="#BE945E"/>
<rect x="-26" y="-16" width="430" height="155" fill="url(#paint0_linear_1277_7130)" fill-opacity="0.5"/>
</g>
<defs>
<linearGradient id="paint0_linear_1277_7130" x1="-26" y1="61.5" x2="404" y2="61.5" gradientUnits="userSpaceOnUse">
<stop stop-color="#700054"/>
<stop offset="0.545" stop-color="#610616"/>
<stop offset="1" stop-color="#753006"/>
</linearGradient>
<clipPath id="clip0_1277_7130">
<rect width="377" height="123" fill="white"/>
</clipPath>
</defs>
</svg>

<svg xmlns="http://www.w3.org/2000/svg" width="377" height="123" fill="none"><g clip-path="url(#a)"><path fill="#A47B52" d="M-.408 1.462A2 2 0 0 1 1.518 0H391.78c.989 0 1.829.723 1.978 1.7l2.2 14.525q.042.276.007.55L384 111.5l-3.183 16.369a2 2 0 0 1-1.978 1.618l-385.035-2.965a2 2 0 0 1-1.87-2.666l7.926-22.459c.092-.262.13-.54.108-.816L-5.974 21.85a2 2 0 0 1 .068-.688z"/><path fill="#BE945E" stroke="#BE945E" d="M66 42.5 86.5-2H99L71 42.5v13l-14 34L66 58zM206.5 93.853 231.5-5H244l-32.5 98.853v19.18L202 130l4.5-13.279z"/><path fill="#BE945E" stroke="#BE945E" d="m227.415 83.62 75.427-107.947 11.419 5.084-82.278 104.896-10.204 22.919-17.705 16.409 11.175-14.036zM119.5 31.95 94.5 133H82l32.5-101.05V12.345L124-5l-4.5 13.574zM328.788 58.647l-16.648 69.548-12.407 1.523 24.092-70.461-1.584-12.903 8.028-12.572-3.37 9.481z"/><path fill="url(#b)" fill-opacity=".5" d="M-26-16h430v155H-26z"/></g><defs><linearGradient id="b" x1="-26" x2="404" y1="61.5" y2="61.5" gradientUnits="userSpaceOnUse"><stop stop-color="#700054"/><stop offset=".545" stop-color="#610616"/><stop offset="1" stop-color="#753006"/></linearGradient><clipPath id="a"><path fill="#fff" d="M0 0h377v123H0z"/></clipPath></defs></svg>
